X:1
T:Companionship with Jesus
T:Companionship with Jesus
T:William James Kirkpatrick
T:Mary Dagworthy James, 1879
T:Public Domain Courtesy of the Cyber Hymnal™
T:Public Domain Courtesy of the Cyber Hymnal™
C:William James Kirkpatrick
Z:Public Domain
Z:Courtesy of the Cyber Hymnal™
%%score ( 1 2 ) ( 3 4 )
L:1/8
Q:1/4=107
M:4/4
K:Ab
V:1 treble 
V:2 treble 
V:3 bass 
V:4 bass 
V:1
 [CE]2 | [CE]3 [DF] [CE]2 [EA]2 | [EA]3 [DB] [Ec]2 [EA]2 | [DA]3 [DB] [DA]2 [DF]2 | [CE]6 [CA]2 | %5
w: 1.~Oh,|bless- èd fel- low-|ship di- vine! Oh,|joy su- preme- ly|sweet! Com-|
w: 2.~I’m|walk- ing close to|Je- sus’ side, So|close that I can|hear The|
w: 3.~I’m|lean- ing on His|lov- ing breast, A-|long life’s wea- ry|way; My|
w: 4.~I|know His shel- tering|wings of love Are|al- ways o’er me|spread, And|
 [EB]3 [Ec] [EB]2 [CA]2 | [Ec]3 [Fd] [Ec]2 [EA]2 | [GB]3 [GB] [Ac]2 [A=d]2 | [Ge]6 [Ed]2 | %9
w: pan- ion- ship with|Je- sus here, Makes|life with bliss re-|plete. In|
w: soft- est whis- pers|of His love, In|fel- low- ship so|dear. And|
w: path, il- lum- ined|by His smiles, Grows|bright- er day by|day. No|
w: tho’ the storms may|fierce- ly rage, All|calm and free from|dread, My|
 [Ec]3 [Ed] [Ee]2 [Ec]2 | [Ec]3 [DB] [CA]3 E | [DF]2 [DF]2 [CE]2 [EA]2 | %12
w: un- ion with the|pur- est One I|find my Heav’n on|
w: feel His great al-|might- y hand Pro-|tects me in this|
w: foes, no woes my|heart can fear, With|my al- might- y|
w: peace- ful spir- it|ev- er sings, “I’ll|trust the co- vert|
 [Ec]3 [DB] !fermata![CA]2 ||"^Refrain" [CA]2 | [EB]3 [Ec] [EB]2 [CA]2 | [Ec]3 [Fd] [Ec]2 [EA]2 | %16
w: earth be- gun.||||
w: hos- tile land.||||
w: friend so near.||||
w: of Thy wings.”||||
 [GB]3 [Ac] [GB]2 [Ge]2 | [Ae]3 [Ac] [GB]3 [Ge] | [Ae]2 [Ec]2 [Ec]3 [=EB] | %19
w: |||
w: |||
w: |||
w: |||
 [FA]2 [DF]2 [FA]3 [DF] | [CE]2 [EA]2 [Ec] [Ee]3 | [DB]3 [CA] !fermata![CA]2 |] %22
w: |||
w: |||
w: |||
w: |||
V:2
 x2 | x8 | x8 | x8 | x8 | x8 | x8 | x8 | x8 | x8 | x7 E | x8 | x6 || x2 | x8 | x8 | x8 | x8 | x8 | %19
 x8 | x8 | x6 |] %22
V:3
 [A,,A,]2 | [A,,A,]3 [A,,A,] [A,,A,]2 [A,,C]2 | [C,A,]3 [B,,G,] [A,,A,]2 [C,A,]2 | %3
w: ~|~ ~ ~ ~|~ ~ ~ ~|
 [D,F,]3 [D,F,] [D,F,]2 [D,A,]2 | [A,,A,]6 [A,,A,]2 | [E,G,]3 [E,A,] [E,G,]2 A,2 | %6
w: ~ ~ ~ ~|~ ~|~ ~ ~ ~|
 A,3 A, A,2 [A,C]2 | [E,E]3 [E,E] [A,E]2 B,2 | [E,B,]6 [G,B,]2 | A,3 [A,B,] [A,C]2 A,2 | %10
w: ~ ~ ~ ~|~ ~ ~ ~|~ ~|~ ~ ~ ~|
 [E,G,]3 [E,G,] [A,,A,]3 [C,A,] | [D,A,]2 [F,A,]2 A,2 [A,C]2 | [E,A,]3 [E,G,] !fermata![A,,A,]2 || %13
w: ~ ~ ~ ~|~ ~ ~ ~|~ ~ ~|
 A,2 | [E,G,]3 [E,A,] [E,G,]2 A,2 | A,3 A, A,2 [A,C]2 | [E,E]3 [E,E] [E,E]2 [E,B,]2 | %17
w: Oh,|won- drous bliss, oh,|joy sub- lime, I’ve|Je- sus with me|
 [A,C]3 [A,E] [E,E]3 [E,B,] | [A,C]2 A,2 A,3 [C,G,] | [D,F,]2 [D,A,]2 [D,A,]3 [D,A,] | %20
w: all the time. Oh,|won- drous bliss, oh,|joy sub- lime, I’ve|
 [E,A,]2 [E,C]2 [E,A,] [E,C]3 | [E,G,]3 E, !fermata![A,,E,]2 |] %22
w: Je- sus with me|all the time.|
V:4
 x2 | x8 | x8 | x8 | x8 | x6 A,2 | A,3 A, A,2 x2 | x6 B,2 | x8 | A,3 A,2 x3 | x8 | x4 A,2 x2 | %12
 x6 || A,2 | x6 A,2 | A,3 A, A,2 x2 | x8 | x8 | x2 A,2 A,3 x | x8 | x8 | x3 E, x2 |] %22

